X: 387
T: Big Footed Man in the Sandy Lot
B: jims roots
M:C|
L:1/8
R: Reel
Q: 1/4=100
K:G
V:1 
|:(3DEF || "G"G2G2 GFED | DG2 G-G2 (3Bcd | "C"ee2 ge2 B2 | "G"d6 ef |
gage gagf | edBc d2B2- | B^ABc "D7"BGEF | "G"G6 :|
|:g2-|| gage gagf | edBc d2cd | "C"ee2 ge2 B2 | "G"d6 g2- |
gage gagf | edBc d2B2- | B^ABc "D7"BGEF | "G"G6 :|
% abcbook-tune_id 6298c24503948005ea6d5b64


% abcbook-boost 0
% abcbook-tablature 
% abcbook-transpose 
% abcbook-lastupdated 1654178373299
% abcbook-soundfonts 
% abcbook-repeats 1


